X:95
T:Steyrer Tanz in G, nr. 64
C:traditionell
R:Steirer
A:Hallstatt, Salzkammergut
B:Corpus Musicae Popularis Austriacae (COMPA), 5.Band: J.M.Schmalnauer " Tanz Musik", Verlag Boehlau, Wien 1996
S:manuscript des Johann Michael Schmalnauer um 1820
N:im der quelle in G
Z:abc transcription Simon Wascher
F:http://simonwascher.info/TradArchiv/
M:3/4
L:1/8
K:G
V:1
%violino 1mo
P:h:Ap:
GB d2 BG | FA c2 AG | GFFDFA | G2 B,D G2 |\
GB d2 BG | FA c2 AG | GFFDFA | "in D" G4 :|
V:2
%violino 2do
(B,D)(B,D)(B,D) | CDCDCD | A,DA,DA,D | B,DB,DB,D |\
B,DB,DB,D | CDCDCD | A,DA,DA,D | B,4 :|
